src/icons/signal.svg

<svg xmlns="http://www.w3.org/2000/svg" width="8" height="8" viewBox="0 0 8 8">
  <path d="M6 0v8h1v-8h-1zm-2 1v7h1v-7h-1zm-2 2v5h1v-5h-1zm-2 2v3h1v-3h-1z" />
</svg>

<svg xmlns="http://www.w3.org/2000/svg" viewBox="0 0 8 8"><path d="M6 0v8h1V0H6zM4 1v7h1V1H4zM2 3v5h1V3H2zM0 5v3h1V5H0z"/></svg>
